X: 24014
T: Logan's Fling
R: strathspey
M: 4/4
K: Edorian
|:B,>F|E2 B>A G<EE>F|D2 F>A D>AF<A|E2 B>A G<EE>F|D>FA>F E2:|
B>c|d<BB>d A<FF>A|d<Bc>d e2 f>e|d<BB>d A<FF>A|(3dcB A>F B2- B>c|
d<BB>d A<FF>A|d<Bc>d e2 d>e|f>ge>f (3dcB A>d|(3Bcd A>F E>D||

